icon/lg/mantine.svg

<?xml version="1.0" encoding="UTF-8"?>
<svg viewBox="0 0 512 134" version="1.1" xmlns="http://www.w3.org/2000/svg" preserveAspectRatio="xMidYMid" height="1em" width="1em">
  <g>
    <g>
      <path d="M133.274921,66.9818211 C133.274921,29.988953 103.440478,0 66.6382824,0 C29.8344428,0 0,29.988953 0,66.9818211 C0,103.973867 29.8344428,133.963642 66.6374606,133.963642 C103.440478,133.963642 133.274921,103.973867 133.274921,66.9818211 Z" fill="#339AF0"/>
      <path d="M57.5665605,33.3766716 C58.8968503,33.1793314 60.2509312,33.5203657 61.3290485,34.3242795 C63.537323,35.9707568 65.5743772,37.8342779 67.4098506,39.886601 L67.8645018,40.4035989 L82.2380609,40.4035989 C85.041435,40.4035989 87.3114202,42.6809808 87.3114202,45.4933954 C87.3114202,48.2441155 85.1372736,50.4825322 82.4238813,50.580659 L82.2380609,50.5840138 L74.2988659,50.5840138 C76.5169134,55.6906691 77.6557209,61.2005949 77.6438477,66.7681368 C77.6548284,72.1363598 76.5960476,77.4509302 74.5315663,82.4020079 L74.2980441,82.950616 L82.2331297,82.950616 C85.0373257,82.950616 87.3073109,85.2288198 87.3073109,88.0412344 C87.3073109,90.7911509 85.1323785,93.0303355 82.4189514,93.1284968 L82.2331297,93.1318528 L67.8562832,93.1318528 C65.9054447,95.3868344 63.7154923,97.4232945 61.3249392,99.2054192 C60.2454215,100.010417 58.8894517,100.351682 57.5574823,100.153599 C56.2255128,99.9555163 55.0275284,99.2344409 54.2289755,98.1501473 C53.8328376,97.6134708 53.5460075,97.0028268 53.3841005,96.3535551 C53.0563893,95.0430633 53.2614925,93.6561049 53.9544733,92.4965528 C54.2959686,91.9244109 54.7473563,91.425538 55.2826036,91.0287058 C63.0442763,85.2460789 67.5004165,76.4044785 67.5004165,66.7673149 C67.5004165,57.1301513 63.0442763,48.2885509 55.2826036,42.505924 C54.7467344,42.109288 54.2947723,41.6103978 53.9528296,41.038077 C52.9368479,39.3313388 53.0017173,37.1979205 54.1024153,35.5602497 L54.2289755,35.3803732 C55.035565,34.2974398 56.2341405,33.5768166 57.5665605,33.3766716 Z M56.652649,58.0588563 C57.5783889,58.453514 58.4154343,59.0300831 59.1141282,59.7543593 C59.8155083,60.4816587 60.3650596,61.3413279 60.7307324,62.2832313 C61.0973324,63.2277999 61.2733065,64.2356005 61.248506,65.2485124 C61.2029359,67.2275768 60.3912238,69.1117505 58.9842738,70.5043252 C57.5866961,71.88735 55.700423,72.6639464 53.7342141,72.6658245 C51.7674357,72.6643788 49.8804931,71.8877499 48.4825105,70.5043252 C47.0755606,69.1117505 46.2638485,67.2275768 46.2182784,65.2485124 C46.1940448,64.2354938 46.3705767,63.227698 46.7376957,62.2832313 C47.1033685,61.3413279 47.6529198,60.4816587 48.3542999,59.7543593 C49.0527382,59.0301565 49.8895001,58.4535901 50.8149573,58.0588563 C52.6797397,57.2642721 54.7878665,57.2642721 56.652649,58.0588563 Z" fill="#FFFFFF"/>
    </g>
    <path d="M239.766976,104.083997 C241.397552,104.083997 242.908958,103.727308 244.302015,103.013932 C245.695073,102.300555 246.391191,101.264186 246.391191,99.9056463 L246.391191,36.2112765 C246.391191,33.7654127 245.71151,32.050185 244.352971,31.0647715 C242.994432,30.0793579 241.465767,29.5870621 239.766976,29.5870621 C238.204615,29.5870621 236.845254,29.7571877 235.690537,30.096617 C234.535819,30.4360464 233.49945,31.115727 232.582251,32.1348369 C231.665052,33.1539468 230.594987,34.6489153 229.372055,36.6189205 L216.837003,59.4469826 L204.403862,36.6189205 C203.316538,34.6489153 202.28099,33.1539468 201.295577,32.1348369 C200.310163,31.115727 199.257357,30.4360464 198.136336,30.096617 C197.015315,29.7571877 195.639517,29.5870621 194.008941,29.5870621 C192.378365,29.5870621 190.866959,30.0801798 189.473902,31.0647715 C188.080844,32.050185 187.384727,33.7654127 187.384727,36.2112765 L187.384727,99.9056463 C187.384727,101.264186 188.080844,102.300555 189.473902,103.013932 C190.866959,103.727308 192.378365,104.083997 194.008941,104.083997 C195.707731,104.083997 197.236396,103.727308 198.594936,103.013932 C199.953475,102.300555 200.633155,101.264186 200.633155,99.9056463 L200.633155,55.268632 L212.352919,77.2814062 C212.964385,78.3005161 213.660503,78.9966339 214.442095,79.3705815 C215.222864,79.7445291 215.987197,79.9310919 216.735092,79.9310919 C217.55038,79.9310919 218.365668,79.72727 219.180956,79.319626 C219.996244,78.911982 220.709621,78.2323015 221.321087,77.2814062 L233.142762,56.0839199 L233.142762,99.9056463 C233.142762,101.264186 233.83888,102.300555 235.231937,103.013932 C236.624995,103.727308 238.1364,104.083997 239.766976,104.083997 L239.766976,104.083997 Z M268.018511,105.001196 C271.550878,105.001196 274.557252,104.185908 277.037634,102.555332 C279.517194,100.924756 281.674584,99.056662 283.508982,96.9502275 L283.508982,99.9056463 C283.508982,101.060364 284.069492,102.045777 285.190513,102.861065 C286.311534,103.676353 287.721851,104.083997 289.419819,104.083997 C291.254217,104.083997 292.782882,103.676353 294.005814,102.861065 C295.228746,102.045777 295.840212,101.061185 295.840212,99.9056463 L295.840212,74.9374533 C295.840212,71.4724796 295.109576,68.2450243 293.649126,65.2559091 C292.187853,62.266794 289.86116,59.8209302 286.668223,57.9183177 C283.474464,56.0157053 279.22872,55.06481 273.929349,55.06481 C271.550878,55.06481 269.105014,55.370543 266.591757,55.9820089 C264.077679,56.5934749 261.954807,57.4597183 260.22232,58.5807392 C258.489833,59.7017601 257.62359,60.9756475 257.62359,62.4024014 C257.62359,63.8973699 258.013975,65.3578201 258.795566,66.784574 C259.576336,68.2113279 260.68092,68.9247048 262.107674,68.9247048 C262.990354,68.9247048 263.805642,68.6534901 264.553537,68.1094169 C265.301433,67.5661656 266.370676,67.0393515 267.763734,66.5297965 C269.155969,66.0202416 271.143234,65.7654641 273.725527,65.7654641 C276.034961,65.7654641 277.818404,66.2413227 279.075854,67.192218 C280.333304,68.1431133 281.249681,69.3323488 281.827451,70.7591027 C282.397827,72.1497759 282.692046,73.6381792 282.693694,75.1412753 L282.693694,76.4661182 L278.515343,76.4661182 C273.827438,76.4661182 269.700043,76.9074586 266.133158,77.7909611 C262.566273,78.6744637 259.780158,80.2031285 257.776457,82.3769557 C255.771933,84.5507829 254.770082,87.5744163 254.770082,91.447034 C254.770082,96.066725 256.077666,99.4807432 258.693655,101.689089 C261.308823,103.897434 264.417108,105.001196 268.018511,105.001196 Z M273.317883,95.2177407 C271.822914,95.2177407 270.549027,94.7764003 269.496221,93.8928978 C268.442592,93.0093952 267.9166,91.6163377 267.9166,89.7145471 C267.9166,87.8119347 268.544503,86.4024399 269.801954,85.485241 C271.059404,84.5680421 272.706417,83.9730134 274.744637,83.7017986 C276.782856,83.4305839 278.922987,83.2941547 281.165029,83.2941547 L282.693694,83.2941547 L282.693694,85.4342855 C282.693694,87.0648614 282.200576,88.6272226 281.215985,90.1221911 C280.230571,91.6171596 279.024898,92.8400915 277.598144,93.7909868 C276.171391,94.7418821 274.744637,95.2177407 273.317883,95.2177407 Z M342.493256,104.083997 C344.192046,104.083997 345.720711,103.727308 347.07925,103.013932 C348.43779,102.300555 349.11747,101.264186 349.11747,99.9056463 L349.11747,75.7527413 C349.11747,71.9475164 348.319441,68.4833645 346.722562,65.3578201 C345.125682,62.2322758 343.002811,59.7362783 340.353125,57.8673623 C337.703439,55.999268 334.781717,55.06481 331.58878,55.06481 C328.192021,55.06481 325.321254,55.8628388 322.977301,57.4597183 C320.633348,59.0565978 318.951817,60.8400401 317.932707,62.8100453 L317.932707,59.7527156 C317.932707,58.5297837 317.372196,57.5443702 316.251175,56.7972968 C315.130155,56.0494017 313.754356,55.6762759 312.12378,55.6762759 C310.221168,55.6762759 308.658807,56.0502235 307.435875,56.7972968 C306.212943,57.545192 305.601477,58.5297837 305.601477,59.7527156 L305.601477,99.9056463 C305.601477,100.924756 306.212943,101.875652 307.435875,102.759154 C308.658807,103.642657 310.22199,104.083997 312.12378,104.083997 C313.958178,104.083997 315.520539,103.642657 316.811686,102.759154 C318.102011,101.875652 318.747995,100.924756 318.747995,99.9056463 L318.747995,75.7527413 C318.747995,73.8501288 319.155639,72.219553 319.970927,70.8610137 C320.786215,69.5024744 321.839021,68.4488463 323.130167,67.7017729 C324.420492,66.9538778 325.746157,66.580752 327.104696,66.580752 C328.735272,66.580752 330.23024,67.0393515 331.58878,67.9565504 C332.947319,68.8737493 334.017384,70.0112075 334.798976,71.3705686 C335.572691,72.7009512 335.977275,74.2137438 335.970952,75.7527413 L335.970952,99.9056463 C335.970952,101.264186 336.684329,102.300555 338.111083,103.013932 C339.537837,103.727308 340.998287,104.083997 342.493256,104.083997 L342.493256,104.083997 Z M381.475854,104.083997 C383.378466,104.083997 384.787961,103.506227 385.70516,102.35151 C386.622359,101.196793 387.080958,99.9056463 387.080958,98.4788924 C387.080958,97.1203531 386.622359,95.862903 385.70516,94.7081857 C384.787961,93.5534684 383.378466,92.9756989 381.475854,92.9756989 L377.501325,92.9756989 C375.394891,92.9756989 373.918003,92.5680549 373.068197,91.752767 C372.219213,90.937479 371.79431,89.5444215 371.79431,87.5744163 L371.79431,65.2559091 L383.819807,65.2559091 C384.907131,65.2559091 385.738856,64.7627914 386.316626,63.7781998 C386.894395,62.7927862 387.182869,61.6890244 387.182869,60.4660925 C387.182869,59.2431606 386.894395,58.1393989 386.316626,57.1539853 C385.738856,56.1685718 384.907131,55.6762759 383.819807,55.6762759 L371.79431,55.6762759 L371.79431,38.1475854 C371.79431,36.9246535 371.098192,35.9392399 369.705134,35.1921666 C368.312077,34.4442714 366.800671,34.0711457 365.170095,34.0711457 C363.675127,34.0711457 362.214676,34.4450933 360.787922,35.1921666 C359.361169,35.9400618 358.647792,36.9246535 358.647792,38.1475854 L358.647792,87.5744163 C358.647792,93.2814318 360.261108,97.4597825 363.488564,100.109468 C366.716019,102.759154 371.386666,104.083997 377.501325,104.083997 L381.475854,104.083997 L381.475854,104.083997 Z M400.437873,44.8737108 C402.407878,44.8737108 404.08941,44.2112894 405.482467,42.8864465 C406.875525,41.5616036 407.571643,40.0838942 407.571643,38.4533184 C407.571643,36.6863133 406.875525,35.1749075 405.482467,33.9182792 C404.08941,32.6608291 402.4087,32.0329259 400.437873,32.0329259 C398.467868,32.0329259 396.769077,32.6616509 395.342324,33.9182792 C393.91557,35.1757294 393.202193,36.6871351 393.202193,38.4533184 C393.202193,40.0838942 393.91557,41.5616036 395.342324,42.8864465 C396.769077,44.2112894 398.467868,44.8737108 400.437873,44.8737108 Z M400.437873,104.083997 C402.272271,104.083997 403.834632,103.642657 405.125779,102.759154 C406.416103,101.875652 407.062088,100.924756 407.062088,99.9056463 L407.062088,59.7527156 C407.062088,58.5297837 406.416925,57.5443702 405.125779,56.7972968 C403.835454,56.0494017 402.272271,55.6762759 400.437873,55.6762759 C398.535261,55.6762759 396.972899,56.0502235 395.749967,56.7972968 C394.527036,57.545192 393.91557,58.5297837 393.91557,59.7527156 L393.91557,99.9056463 C393.91557,100.924756 394.527036,101.875652 395.749967,102.759154 C396.972899,103.642657 398.536083,104.083997 400.437873,104.083997 L400.437873,104.083997 Z M454.061958,104.083997 C455.759926,104.083997 457.288591,103.727308 458.647952,103.013932 C460.006491,102.300555 460.686172,101.264186 460.686172,99.9056463 L460.686172,75.7527413 C460.686172,71.9475164 459.887321,68.4833645 458.291264,65.3578201 C456.694384,62.2322758 454.571513,59.7362783 451.921827,57.8673623 C449.272141,55.999268 446.350419,55.06481 443.157481,55.06481 C439.7599,55.06481 436.889955,55.8628388 434.546003,57.4597183 C432.20205,59.0565978 430.520518,60.8400401 429.501409,62.8100453 L429.501409,59.7527156 C429.501409,58.5297837 428.940898,57.5443702 427.819877,56.7972968 C426.698856,56.0494017 425.323058,55.6762759 423.692482,55.6762759 C421.78987,55.6762759 420.227508,56.0502235 419.004576,56.7972968 C417.781645,57.545192 417.170179,58.5297837 417.170179,59.7527156 L417.170179,99.9056463 C417.170179,100.924756 417.781645,101.875652 419.004576,102.759154 C420.227508,103.642657 421.790691,104.083997 423.692482,104.083997 C425.52688,104.083997 427.089241,103.642657 428.380388,102.759154 C429.670712,101.875652 430.316696,100.924756 430.316696,99.9056463 L430.316696,75.7527413 C430.316696,73.8501288 430.72434,72.219553 431.539628,70.8610137 C432.354916,69.5024744 433.407723,68.4488463 434.698869,67.7017729 C435.989194,66.9538778 437.314037,66.580752 438.673398,66.580752 C440.303974,66.580752 441.79812,67.0393515 443.157481,67.9565504 C444.516021,68.8737493 445.586086,70.0112075 446.367678,71.3705686 C447.141393,72.7009512 447.545977,74.2137438 447.539654,75.7527413 L447.539654,99.9056463 C447.539654,101.264186 448.253031,102.300555 449.679785,103.013932 C451.106539,103.727308 452.566989,104.083997 454.061958,104.083997 L454.061958,104.083997 Z M493.248378,105.001196 C496.917173,105.001196 500.092851,104.542596 502.777055,103.625397 C505.460437,102.708199 507.532354,101.587178 508.993626,100.262335 C510.454076,98.9374919 511.184712,97.6981227 511.184712,96.5425836 C511.184712,95.862903 510.98089,95.0648742 510.573246,94.1476753 C510.170115,93.2366963 509.579836,92.4207218 508.840759,91.752767 C508.092864,91.0730864 507.210183,90.733657 506.191073,90.733657 C505.239356,90.733657 504.220246,91.03939 503.133744,91.650856 C502.046419,92.2623219 500.755273,92.9083061 499.261126,93.5871648 C497.766158,94.2668454 495.898063,94.6062747 493.656022,94.6062747 C490.122833,94.6062747 487.252066,93.7063349 485.044543,91.9056335 C482.836197,90.1057538 481.732435,87.7445419 481.732435,84.8228195 L481.732435,83.2941547 L502.420367,83.2941547 C503.982728,83.2941547 505.494134,83.1412882 506.955406,82.8355552 C508.415856,82.5298222 509.621529,81.7482307 510.573246,80.4916024 C511.524141,79.2341523 512,77.1457988 512,74.2240764 C512,70.4188515 511.014586,67.090307 509.044581,64.2367992 C507.073754,61.3832915 504.509542,59.1412496 501.350301,57.5106738 C498.191061,55.8800979 494.70965,55.06481 490.904425,55.06481 C486.75977,55.06481 483.006323,55.999268 479.64326,57.8673623 C476.280197,59.7354565 473.595993,62.2150167 471.592292,65.3068646 C469.587768,68.3978908 468.585918,71.7782126 468.585918,75.4470083 L468.585918,84.1094426 C468.585918,88.2540969 469.638724,91.9056335 471.745158,95.0648742 C473.850771,98.2241149 476.755234,100.669979 480.458548,102.402466 C484.16104,104.134952 488.424043,105.001196 493.248378,105.001196 L493.248378,105.001196 Z M496.61144,75.5489193 L481.732435,75.5489193 L481.732435,72.6954115 C481.732435,71.0648357 482.156517,69.654519 483.006323,68.4661054 C483.855307,67.2768699 484.959069,66.3596709 486.31843,65.7145086 C487.676969,65.0693463 489.13742,64.7463542 490.700603,64.7463542 C492.331179,64.7463542 493.825325,65.0857835 495.184686,65.7654641 C496.543226,66.4451447 497.63055,67.39604 498.445838,68.6189719 C499.261126,69.8419038 499.66877,71.2349613 499.66877,72.7973225 C499.66877,73.8846471 499.447689,74.6144613 499.006349,74.9884088 C498.564186,75.3623564 497.766158,75.5489193 496.61144,75.5489193 L496.61144,75.5489193 Z" fill="#000000"/>
  </g>
</svg>

<svg width="512" height="134" xmlns="http://www.w3.org/2000/svg" preserveAspectRatio="xMidYMid"><path d="M133.275 66.982C133.275 29.989 103.44 0 66.638 0 29.834 0 0 29.989 0 66.982c0 36.992 29.834 66.982 66.637 66.982s66.638-29.99 66.638-66.982Z" fill="#339AF0"/><path d="M57.567 33.377a5.054 5.054 0 0 1 3.762.947 41.184 41.184 0 0 1 6.08 5.563l.456.517h14.373c2.803 0 5.073 2.277 5.073 5.09 0 2.75-2.174 4.989-4.887 5.087l-.186.003h-7.94a40.408 40.408 0 0 1 3.346 16.184 40.408 40.408 0 0 1-3.112 15.634l-.234.549h7.935c2.804 0 5.074 2.278 5.074 5.09 0 2.75-2.175 4.99-4.888 5.087l-.186.004H67.856a41.185 41.185 0 0 1-6.531 6.073 5.058 5.058 0 0 1-7.096-1.055 5.105 5.105 0 0 1-.275-5.654 5.048 5.048 0 0 1 1.329-1.467C63.044 85.246 67.5 76.404 67.5 66.767S63.044 48.29 55.283 42.506a5.046 5.046 0 0 1-1.33-1.468 5.124 5.124 0 0 1 .15-5.478l.126-.18a5.109 5.109 0 0 1 3.338-2.003Zm-.914 24.682a7.515 7.515 0 0 1 2.461 1.695 7.611 7.611 0 0 1 1.617 2.53 7.676 7.676 0 0 1-1.747 8.22 7.474 7.474 0 0 1-5.25 2.162 7.474 7.474 0 0 1-5.251-2.162 7.643 7.643 0 0 1-2.265-5.255 7.678 7.678 0 0 1 .52-2.966 7.611 7.611 0 0 1 1.616-2.529 7.514 7.514 0 0 1 2.461-1.695 7.446 7.446 0 0 1 5.838 0Z" fill="#FFF"/><path d="M239.767 104.084c1.63 0 3.142-.357 4.535-1.07 1.393-.713 2.09-1.75 2.09-3.108V36.21c0-2.446-.68-4.16-2.039-5.146-1.359-.986-2.887-1.478-4.586-1.478-1.562 0-2.922.17-4.076.51-1.155.339-2.192 1.019-3.109 2.038-.917 1.019-1.987 2.514-3.21 4.484l-12.535 22.828-12.433-22.828c-1.087-1.97-2.123-3.465-3.108-4.484-.986-1.02-2.039-1.699-3.16-2.038-1.12-.34-2.496-.51-4.127-.51-1.63 0-3.142.493-4.535 1.478-1.393.985-2.09 2.7-2.09 5.146v63.695c0 1.358.697 2.395 2.09 3.108 1.393.713 2.904 1.07 4.535 1.07 1.699 0 3.227-.357 4.586-1.07 1.358-.713 2.038-1.75 2.038-3.108V55.269l11.72 22.012c.611 1.02 1.308 1.716 2.09 2.09.78.374 1.544.56 2.292.56.815 0 1.63-.204 2.446-.611.815-.408 1.529-1.088 2.14-2.039l11.822-21.197v43.822c0 1.358.696 2.395 2.089 3.108 1.393.713 2.904 1.07 4.535 1.07Zm28.252.917c3.532 0 6.538-.815 9.019-2.446 2.48-1.63 4.637-3.498 6.471-5.605v2.956c0 1.154.56 2.14 1.682 2.955 1.12.815 2.53 1.223 4.229 1.223 1.834 0 3.363-.408 4.586-1.223 1.223-.815 1.834-1.8 1.834-2.955V74.937c0-3.465-.73-6.692-2.19-9.681-1.462-2.99-3.789-5.435-6.982-7.338-3.194-1.902-7.44-2.853-12.739-2.853-2.378 0-4.824.306-7.337.917-2.514.611-4.637 1.478-6.37 2.599-1.732 1.12-2.598 2.395-2.598 3.821 0 1.495.39 2.956 1.172 4.383.78 1.426 1.885 2.14 3.312 2.14.882 0 1.698-.272 2.446-.816.747-.543 1.817-1.07 3.21-1.58 1.392-.509 3.38-.764 5.962-.764 2.309 0 4.092.476 5.35 1.427a8.317 8.317 0 0 1 2.751 3.567c.57 1.39.865 2.88.867 4.382v1.325h-4.179c-4.688 0-8.815.441-12.382 1.325-3.567.883-6.353 2.412-8.357 4.586-2.004 2.174-3.006 5.197-3.006 9.07 0 4.62 1.308 8.034 3.924 10.242 2.615 2.208 5.723 3.312 9.325 3.312Zm5.299-9.783c-1.495 0-2.769-.442-3.822-1.325-1.053-.884-1.58-2.277-1.58-4.178 0-1.903.629-3.313 1.886-4.23 1.257-.917 2.904-1.512 4.943-1.783a48.678 48.678 0 0 1 6.42-.408h1.529v2.14c0 1.63-.493 3.193-1.478 4.688-.985 1.495-2.191 2.718-3.618 3.669-1.427.95-2.853 1.427-4.28 1.427Zm69.175 8.866c1.699 0 3.228-.357 4.586-1.07 1.359-.713 2.038-1.75 2.038-3.108V75.753c0-3.805-.798-7.27-2.394-10.395-1.597-3.126-3.72-5.622-6.37-7.49-2.65-1.869-5.571-2.803-8.764-2.803-3.397 0-6.268.798-8.612 2.395-2.344 1.597-4.025 3.38-5.044 5.35v-3.057c0-1.223-.56-2.209-1.682-2.956-1.12-.748-2.497-1.12-4.127-1.12-1.903 0-3.465.373-4.688 1.12-1.223.748-1.835 1.733-1.835 2.956v40.153c0 1.019.612 1.97 1.835 2.853 1.223.884 2.786 1.325 4.688 1.325 1.834 0 3.397-.441 4.688-1.325 1.29-.883 1.936-1.834 1.936-2.853V75.753c0-1.903.408-3.533 1.223-4.892.815-1.359 1.868-2.412 3.16-3.16 1.29-.747 2.615-1.12 3.974-1.12 1.63 0 3.125.458 4.484 1.376 1.358.917 2.428 2.054 3.21 3.414a8.646 8.646 0 0 1 1.172 4.382v24.153c0 1.358.713 2.395 2.14 3.108 1.427.713 2.887 1.07 4.382 1.07Zm38.983 0c1.902 0 3.312-.578 4.23-1.732.916-1.155 1.375-2.446 1.375-3.873 0-1.359-.459-2.616-1.376-3.77-.917-1.156-2.327-1.733-4.23-1.733h-3.974c-2.106 0-3.583-.408-4.433-1.223-.849-.816-1.274-2.209-1.274-4.179V65.256h12.026c1.087 0 1.919-.493 2.497-1.478.577-.985.866-2.089.866-3.312 0-1.223-.289-2.327-.866-3.312-.578-.985-1.41-1.478-2.497-1.478h-12.026V38.148c0-1.223-.696-2.209-2.089-2.956-1.393-.748-2.904-1.12-4.535-1.12-1.495 0-2.955.373-4.382 1.12-1.427.748-2.14 1.733-2.14 2.956v49.426c0 5.707 1.613 9.886 4.84 12.535 3.228 2.65 7.899 3.975 14.013 3.975h3.975Zm18.962-59.21c1.97 0 3.651-.663 5.044-1.988 1.394-1.324 2.09-2.802 2.09-4.433 0-1.767-.696-3.278-2.09-4.535-1.393-1.257-3.073-1.885-5.044-1.885-1.97 0-3.669.629-5.096 1.885-1.426 1.258-2.14 2.77-2.14 4.535 0 1.63.714 3.109 2.14 4.433 1.427 1.325 3.126 1.988 5.096 1.988Zm0 59.21c1.834 0 3.397-.441 4.688-1.325 1.29-.883 1.936-1.834 1.936-2.853V59.753c0-1.223-.645-2.209-1.936-2.956-1.29-.748-2.854-1.12-4.688-1.12-1.903 0-3.465.373-4.688 1.12-1.223.748-1.834 1.733-1.834 2.956v40.153c0 1.019.611 1.97 1.834 2.853 1.223.884 2.786 1.325 4.688 1.325Zm53.624 0c1.698 0 3.227-.357 4.586-1.07 1.358-.713 2.038-1.75 2.038-3.108V75.753c0-3.805-.799-7.27-2.395-10.395-1.597-3.126-3.72-5.622-6.37-7.49-2.649-1.869-5.57-2.803-8.764-2.803-3.397 0-6.267.798-8.611 2.395-2.344 1.597-4.025 3.38-5.045 5.35v-3.057c0-1.223-.56-2.209-1.681-2.956-1.121-.748-2.497-1.12-4.128-1.12-1.902 0-3.464.373-4.687 1.12-1.223.748-1.835 1.733-1.835 2.956v40.153c0 1.019.612 1.97 1.835 2.853 1.223.884 2.786 1.325 4.687 1.325 1.835 0 3.397-.441 4.688-1.325 1.29-.883 1.937-1.834 1.937-2.853V75.753c0-1.903.407-3.533 1.223-4.892.815-1.359 1.868-2.412 3.159-3.16 1.29-.747 2.615-1.12 3.974-1.12 1.631 0 3.125.458 4.484 1.376 1.359.917 2.43 2.054 3.21 3.414a8.646 8.646 0 0 1 1.173 4.382v24.153c0 1.358.713 2.395 2.14 3.108 1.427.713 2.887 1.07 4.382 1.07Zm39.186.917c3.67 0 6.845-.458 9.53-1.376 2.682-.917 4.754-2.038 6.216-3.363 1.46-1.325 2.19-2.564 2.19-3.72 0-.68-.203-1.477-.61-2.394a7.102 7.102 0 0 0-1.733-2.395 3.809 3.809 0 0 0-2.65-1.02c-.952 0-1.97.306-3.057.918a51.147 51.147 0 0 1-3.873 1.936c-1.495.68-3.363 1.02-5.605 1.02-3.533 0-6.404-.9-8.611-2.701-2.209-1.8-3.313-4.161-3.313-7.083v-1.529h20.688c1.563 0 3.074-.153 4.535-.458 1.46-.306 2.667-1.088 3.618-2.344.951-1.258 1.427-3.346 1.427-6.268 0-3.805-.985-7.134-2.955-9.987-1.971-2.854-4.535-5.096-7.695-6.726-3.159-1.63-6.64-2.446-10.446-2.446-4.144 0-7.898.934-11.26 2.802-3.364 1.868-6.048 4.348-8.052 7.44-2.004 3.09-3.006 6.471-3.006 10.14v8.662c0 4.145 1.053 7.797 3.16 10.956 2.105 3.16 5.01 5.605 8.713 7.337 3.702 1.733 7.965 2.6 12.79 2.6Zm3.363-29.452h-14.879v-2.854c0-1.63.425-3.04 1.274-4.229a8.44 8.44 0 0 1 3.312-2.751 10.084 10.084 0 0 1 4.383-.969c1.63 0 3.124.34 4.484 1.02 1.358.68 2.446 1.63 3.26 2.853.816 1.223 1.224 2.616 1.224 4.178 0 1.088-.221 1.817-.663 2.191-.442.374-1.24.56-2.395.56Z"/></svg>
